public/img/icon/general/wa.svg

<svg width="50" height="51" viewBox="0 0 50 51" fill="none" xmlns="http://www.w3.org/2000/svg">
<path fill-rule="evenodd" clip-rule="evenodd" d="M25.1895 10.6099C17.1858 10.6099 10.6727 17.1 10.6727 25.1267C10.6727 27.8787 11.4295 30.4242 12.7597 32.6258L10.1453 40.4002L18.1719 37.8317C20.2589 38.9784 22.6439 39.6435 25.1895 39.6435C33.1932 39.6435 39.7063 33.1533 39.7063 25.1267C39.7063 17.1 33.2162 10.6099 25.1895 10.6099ZM25.1895 37.1896C22.7356 37.1896 20.4423 36.4557 18.5388 35.1944L13.9063 36.685L15.4199 32.1901C13.9751 30.1949 13.1266 27.7411 13.1266 25.1037C13.1266 18.4531 18.5388 13.0179 25.2124 13.0179C31.8631 13.0179 37.2983 18.4301 37.2983 25.1037C37.2754 31.7773 31.8631 37.1896 25.1895 37.1896ZM32.0007 28.4061C31.6338 28.1997 29.845 27.2365 29.5239 27.0989C29.1799 26.9613 28.9506 26.8925 28.6754 27.2595C28.4231 27.6264 27.6663 28.4291 27.4599 28.6584C27.2306 28.8877 27.0242 28.9106 26.6572 28.7272C26.2903 28.5208 25.1207 28.085 23.7447 26.7778C22.6898 25.7458 21.9788 24.5074 21.7724 24.1405C21.566 23.7506 21.7724 23.5672 21.9559 23.3837C22.1394 23.2232 22.3458 22.9709 22.5292 22.7645C22.7127 22.5581 22.7815 22.3976 22.9191 22.1683C23.0567 21.916 22.9879 21.7096 22.9191 21.5261C22.8274 21.3427 22.1623 19.4851 21.8871 18.7283C21.6119 17.9715 21.2908 18.0861 21.0844 18.0861C20.878 18.0861 20.6258 18.0403 20.3735 18.0403C20.1212 18.0403 19.7314 18.1091 19.3644 18.476C19.0204 18.8429 18.0114 19.6915 17.9426 21.5261C17.8738 23.3379 19.1351 25.1496 19.3186 25.4018C19.5021 25.6541 21.7266 29.5986 25.4418 31.2269C29.157 32.8552 29.1799 32.3507 29.845 32.3277C30.533 32.2819 32.0695 31.5021 32.4135 30.6536C32.7575 29.805 32.7804 29.0483 32.6887 28.9107C32.597 28.7043 32.3676 28.6125 32.0007 28.4061Z" fill="#2963AD"/>
</svg>

<svg width="50" height="51" fill="none" xmlns="http://www.w3.org/2000/svg"><path fill-rule="evenodd" clip-rule="evenodd" d="M25.19 10.61c-8.004 0-14.517 6.49-14.517 14.517 0 2.752.757 5.297 2.087 7.499L10.145 40.4l8.027-2.568a14.52 14.52 0 0 0 7.017 1.812c8.004 0 14.517-6.49 14.517-14.517S33.216 10.61 25.19 10.61zm0 26.58c-2.454 0-4.748-.734-6.651-1.996l-4.633 1.491 1.514-4.495a12.053 12.053 0 0 1-2.293-7.086c0-6.65 5.412-12.086 12.085-12.086 6.651 0 12.086 5.412 12.086 12.086-.023 6.673-5.435 12.086-12.109 12.086zM32 28.406c-.366-.206-2.155-1.17-2.476-1.307-.344-.138-.573-.207-.849.16-.252.367-1.009 1.17-1.215 1.4-.23.229-.436.252-.803.068-.367-.206-1.536-.642-2.912-1.95-1.055-1.031-1.766-2.27-1.973-2.637-.206-.39 0-.573.184-.756.183-.16.39-.413.573-.62.184-.206.253-.366.39-.596.138-.252.069-.458 0-.642-.092-.183-.757-2.04-1.032-2.798-.275-.757-.596-.642-.803-.642-.206 0-.458-.046-.71-.046a1.4 1.4 0 0 0-1.01.436c-.344.367-1.353 1.216-1.421 3.05-.07 1.812 1.192 3.624 1.376 3.876.183.252 2.408 4.197 6.123 5.825 3.715 1.628 3.738 1.124 4.403 1.1.688-.045 2.224-.825 2.569-1.673.343-.849.366-1.606.275-1.743-.092-.207-.321-.299-.688-.505z" fill="#2963AD"/></svg>
